X:1
T: The Firefly
C:
R:Reel
Q: 232
K:Bb
M:4/4
L:1/8
|:F|BA Bc Bd cB|AB GA FG EF|DF BF GE ed|((3cdc) ((3BAG) F2 ((3FGA)|
BA Bc Bd cB|AB GA FG EF|DF Bd dc BA|c2 B2 B2:|
|:((3GFE)|((3DFB) d2 ((3Bdf) b2|b2 a2 gf ed|ed ef ed cB|Ac BG FG FE|
((3DFB) d2 ((3Bdf) b2|b2 a2 gf ed|ed cB A=e ((3fga)|b2 B2 B2:|
